!!!OTL: Durch dreimal drei. / Maurerlied.
!!!OTL-incipit: DURCH DREIMAL DREI IHR BRUEDER
!!!COM: C. Fr. Ebers
!!!ARE: Europa, Mitteleuropa, Deutschland
!!!SCT: F0788
!!!TXL: @@DE
!!!YEM: Copyright 1995, estate of Helmut Schaffrath.
**kern	**text
*ICvox	*
*clefG2	*
*M4/4	*
*met(c)	*
*k[f#c#]	*
*D:	*
!LO:TX:a:t=Würdig und lebhaft.	!
!LO:TX:a:t=Alle.	!
!LO:TX:a:t=P:only the highest voice encoded:problem	!
{4dd/	1._Durch
=1	=1
4ff#/	dreimal
4dd/	.
4ff#/	drei,
4dd/	ihr
=2	=2
(>4..ee/	Brü-
16ff#/)	.
4ee/}	-der!
{4ee/	rauſch'
=3	=3
4gg/	un-
4ee/	-ſer
4gg/	Be-
4ee/	-cher-
=4	=4
2ff#/	-klang!
4r}	.
{4ff#/	Durch
=5	=5
4gg/	dreimal
4ff#/	.
4gg/	drei
4ee/	der
=6	=6
4ff#/	Lie-
8aa/}	-der
{8gg/	me-
4ff#/	-lo-
4ee/	-di-
=7	=7
2dd/	-ſcher
2cc#/	Ge-
=8	=8
2.dd/}	-ſang!
!LO:TX:a:t=Einer.	!
{4a\	Wir
=9	=9
4.dd	rich-
8ee	-ten,
4dd	was
4cc#	wir
=10	=10
4cc#qq	.
2b	bau-
4b}	-en,
{4b	nach
=11	=11
4.gg	Win-
8ff#	-kel-
4ee	-maß
4dd	und
=12	=12
2cc#	Schnur,
4r}	.
{4ee	und
=13	=13
4dd	fol-
4cc#	-gen
4b/	mit
4a	Ver-
=14	=14
(4g#	-trau-
4e)	.
4a}	-en
{4b/	den
=15	=15
4cc#	Re-
4cc#	-geln
4b	der
4b	Na-
=16	=16
2a	-tur;
4r}	.
{4a	ſie
=17	=17
4.dd	ge-
8ee	-ben
4dd	uns
4cc#	den
=18	=18
2.b/}	Plan
{4a	ʒum
=19	=19
4gn	gro-
4f#	-ßen
4e	Tem-
4d	-pel
=20	=20
2e	an.
4r}	.
{4d	Durch
=21	=21
4f#	drei-
4d	-mal
4f#	drei,
4d	ihr
=22	=22
(>4.e	Brü-
8f#)	.
4e}	-der!
{4e	rauſch'
=23	=23
4g	un-
4e	-ſer
4g	Be-
4e	-cher-
=24	=24
2f#	-klang!
4r}	.
{4a	Durch
=25	=25
4b/	dreimal
4a	.
4b/	drei
4cc#/	der
=26	=26
4dd/	Lie-
8cc#/}	-der
{8b/	me-
4a	-lo-
4g	-di-
=27	=27
2f#	-ſcher
2e	Ge-
=28	=28
2d	-ſang.
4r}	.
{4dd/	1._Durch
=29	=29
4ff#/	dreimal
4dd/	.
4ff#/	drei,
4dd/	ihr
=30	=30
(>4..ee/	Brü-
16ff#/)	.
4ee/}	-der!
{4ee/	rauſch'
=31	=31
4gg/	un-
4ee/	-ſer
4gg/	Be-
4ee/	-cher-
=32	=32
2ff#/	-klang!
4r}	.
{4ff#/	Durch
=33	=33
4gg/	dreimal
4ff#/	.
4gg/	drei
4ee/	der
=34	=34
4ff#/	Lie-
8aa/}	-der
{8gg/	me-
4ff#/	-lo-
4ee/	-di-
=35	=35
2dd/	-ſcher
2cc#/	Ge-
=36	=36
2.dd/}	-ſang!
==	==
!!!AGN: Staende -, Maurer - Lied
!!!ONB: ESAC (Essen Associative Code) Database: FINK
!!!AMT: simple quadruple
!!!AIN: vox
!!!EED: Helmut Schaffrath
!!!EEV: 1.0
!!!RDF**kern: > = above
!!!GTL: Liedertafel- und Gesellschaftslieder
!!Text: W. Gerhard
!!!source: Musikalischer Hausschatz der Deutschen. Eine Sammlung von über 1000 Liedern und Gesängen mit Singstimmen und Klavierbegleitung. Leipzig, Litterarisches Verlags-Haus.
!!!page: 544
!!!URL-scan: https://www.digitale-sammlungen.de/en/view/bsb11144622?page=494
!!!ENC: Anna Maria Matuszewska
!!!EEV: 2024/08/06
*-	*-